X:1
T:Title
%%score { ( 1 4 ) | ( 2 3 ) }
L:1/8
M:3/4
K:F
V:1 treble nm="Grand Piano"
V:4 treble 
V:2 bass 
V:3 bass 
V:1
 z2 z[Q:1/4=94] A AG | [A,F]3 F [G,E]F | [B,G]3 B [DB]A | [B,G]3 G [A,F]G | [CA]3 c cB | %5
 [CA]3 [CA] [^CA]G | [DF]3 [DF] [^CF]G | [CA]3 B [CA]G |[M:2/4] [A,F]4 |[M:3/8] AAA | %10
[M:3/4] [^Fd]4 z2 | [DGB]4 z G | [Ec]4 z2 | [CFA]3 A AG | ^F3 [DF] [DG][DA] | [DB]3 B cd | %16
 [Ee]>[Ed] [CEc][DEB] [CEA][B,EG] |[M:3/8] [A,F]2 z |] %18
V:2
 z2 z C CB, | F,,C, z A, z A, | C,,C, z D z C | C,,C, z B, z B, | F,,C, z E ED | z F, F,2 z ^C | %6
 z D, D,2 z ^C | C,,C, z D z B, |[M:2/4] [F,,C,]4 |[M:3/8] z z A, |[M:3/4] [D,A,]D, D,D, D,D, | %11
 G,D, G,[K:treble]G G[K:bass]G, | [C,G,]C, C,C, C,C, | F,C, F,[F,A,C] [F,A,C][_E,A,C] | %14
 [D,A,D]3 [C,A,] [B,,G,][A,,^F,] | [G,,G,]3[K:treble] [G,DG] [G,DG][G,B,G] | %16
 [C,G,]>[C,G,] C,C, C,C, |[M:3/8] F,2 z |] %18
V:3
 x6 | z2 F,2 C,2 | z2 E,2 C,2 | z2 E,2 C,2 | z2 F,2 z2 | F,,4 [E,,E,]2 | D,,4 [B,,,B,,]2 | %7
 z2 C,2 C,2 |[M:2/4] x4 |[M:3/8] x3 |[M:3/4] x6 | x3[K:treble] x2[K:bass] x | x6 | x6 | x6 | %15
 x3[K:treble] x3 | x6 |[M:3/8] x3 |] %18
V:4
 x6 | x6 | x6 | x6 | x6 | x6 | x6 | x6 |[M:2/4] x4 |[M:3/8] x3 |[M:3/4] z A, A,[D^FA] [DFB][DFc] | %11
 x6 | z G, G,[CEG] [CEA][CEB] | x6 | x6 | x6 | x6 |[M:3/8] x3 |] %18

